X: 22042
T: Knights', The
R: reel
M: 4/4
K: Edorian
|:ed BA dB AF|ED FE DA, A,/A,/A,|B,E ED EF GA|BA B/c/d ef gf|
ed BA dB AF|!turn!E2>F2 DA, !turn!A,2|B,E ED EF GA|1 B/c/B AF E4:|2 B/c/B AF2< E2F||
|:G2>E2 !turn!F2 ED|B,E ED EF GA|BA B/c/d eg fd:|Be d/e/f ed Bc|
!turn!d2>B2 AF !turn!F2|dD FD ED B,A,|B,E ED EF GA|1 !turn!B2 AF2< E2F:|2 !turn!B2 AF E4||

